img/svg/16/net/irider.svg

<svg xmlns="http://www.w3.org/2000/svg" viewBox="0 0 16 16" enable-background="new 0 0 16 16"><path d="M12.439 3.977c1.372-.696 2.469-.726 2.561-.727v11.75h-14v-1.25c.108 0 1.583-.02 3.34-1.007 1.014.785 2.281 1.257 3.66 1.257 3.309 0 6-2.691 6-6 0-1.548-.595-2.957-1.561-4.023zm-11.439-2.977v11.75c.092-.001 1.189-.031 2.561-.727-.966-1.066-1.561-2.475-1.561-4.023 0-3.309 2.691-6 6-6 1.379 0 2.646.472 3.66 1.257 1.757-.987 3.232-1.007 3.34-1.007v-1.25h-14zm12 7c0-2.761-2.239-5-5-5s-5 2.239-5 5 2.239 5 5 5 5-2.239 5-5z" fill="#ccc"/></svg>

<svg xmlns="http://www.w3.org/2000/svg" viewBox="0 0 16 16"><path fill="#ccc" d="M12.439 3.977c1.372-.696 2.469-.726 2.561-.727V15H1v-1.25c.108 0 1.583-.02 3.34-1.007A5.958 5.958 0 0 0 8 14c3.309 0 6-2.691 6-6a5.974 5.974 0 0 0-1.561-4.023zM1 1v11.75c.092-.001 1.189-.031 2.561-.727A5.974 5.974 0 0 1 2 8c0-3.309 2.691-6 6-6 1.379 0 2.646.472 3.66 1.257C13.417 2.27 14.892 2.25 15 2.25V1H1zm12 7a5 5 0 1 0-10.001.001A5 5 0 0 0 13 8z"/></svg>
